icons/box-chart-series-16.svg

<svg xmlns="http://www.w3.org/2000/svg" viewBox="0 0 16 16"><path d="M16 15v1H1V1h1v14zm-4-3h-2V4h2V3h-1V2h3v1h-1v1h2v8h-2v1h1v1h-3v-1h1zm-1-6h3V5h-3zm3 5V7h-3v4zm-6 0H6v1h1v1H4v-1h1v-1H3V5h2V4H4V3h3v1H6v1h2zM4 8h3V6H4zm3 2V9H4v1z"/><path d="M11 11V5h3v6z" opacity=".25"/><path fill="none" d="M0 0h16v16H0z"/></svg>

<svg id="icons" xmlns="http://www.w3.org/2000/svg" viewBox="0 0 16 16"><defs><style>.cls-1{opacity:0.25;}.cls-2{fill:none;}</style></defs><path d="M16,15v1H1V1H2V15Zm-4-3H10V4h2V3H11V2h3V3H13V4h2v8H13v1h1v1H11V13h1ZM11,6h3V5H11Zm3,5V7H11v4ZM8,11H6v1H7v1H4V12H5V11H3V5H5V4H4V3H7V4H6V5H8ZM4,8H7V6H4Zm3,2V9H4v1Z"/><path class="cls-1" d="M11,11V5h3v6Z"/><rect class="cls-2" width="16" height="16"/></svg>
